components/Common/Svg/svgs/ok.svg

<svg width="40" height="40" viewBox="0 0 40 40" fill="none" xmlns="http://www.w3.org/2000/svg">
<path d="M7.70711 18.2929C7.31658 17.9024 6.68342 17.9024 6.29289 18.2929C5.90237 18.6834 5.90237 19.3166 6.29289 19.7071L7.70711 18.2929ZM33.2768 11.6298C33.6246 11.2008 33.5588 10.5711 33.1298 10.2232C32.7008 9.87541 32.0711 9.94121 31.7232 10.3702L33.2768 11.6298ZM18.199 28.6379L18.9758 29.2677L18.199 28.6379ZM6.29289 19.7071L16.0081 29.4223L17.4223 28.0081L7.70711 18.2929L6.29289 19.7071ZM18.9758 29.2677L33.2768 11.6298L31.7232 10.3702L17.4223 28.0081L18.9758 29.2677ZM16.0081 29.4223C16.8472 30.2615 18.2283 30.1895 18.9758 29.2677L17.4223 28.0081L16.0081 29.4223Z" fill="#161616"/>
</svg>

<svg width="40" height="40" viewBox="0 0 40 40" fill="none" xmlns="http://www.w3.org/2000/svg"><path d="M7.707 18.293a1 1 0 0 0-1.414 1.414l1.414-1.414Zm25.57-6.663a1 1 0 0 0-1.554-1.26l1.554 1.26ZM18.199 28.638l.777.63-.777-.63Zm-11.906-8.93 9.715 9.714 1.414-1.414-9.715-9.715-1.414 1.414Zm12.683 9.56 14.3-17.638-1.553-1.26-14.3 17.638 1.553 1.26Zm-2.968.154a2 2 0 0 0 2.968-.154l-1.554-1.26-1.414 1.414Z" fill="#161616"/></svg>
